**kern
*staff1
!!pagebreak:original
*I"P1
=1-
*clefG2
*k[b-e-a-]
*M2/4
8.eee-\L
16fff\k
8eee-\
8ddd-\J
=2
8ccc\L
8bb-\J
4aa-\
=3
8bb-\L
8aa-\J
4gg\
=4
8aa-\L
8bb-\J
4ccc\
=5
8.eee-\L
16fff\k
8eee-\
8ddd-\J
=6
8ccc\L
8bb-\J
4aa-\
=7
8bb-\L
8aa-\J
4gg\
=8
4.aa-\
=
*-
